X:12
T:Il était une dame tartine
C:Paroles et musique : tradition du début du XIXe siècle
Z:Transcrit et/ou corrigé par Michel BELLON - 2006-04-28
Z:Pour toute observation mailto:galouvielle@free.fr
M:6/8
L:1/8
K:F
z3 F2A |: "F"c2c "C7"BcB | "F"A2A F2A | c2c "C7"BcB |1 "F"A2z F2A :|2
"F" AzA ABG || A2A ABG | A2A ABG | "C"c2F "C7"GFE | "F"F3 z3 |]

%%footer $D   Galouvielle-MBe 2006 \n-- (--)
